public/icons/sound/high.svg

<svg width="16" height="16" viewBox="0 0 16 16" fill="none" xmlns="http://www.w3.org/2000/svg">
<path d="M12.945 1.37903L12.293 2.14203C13.87 3.60403 14.863 5.68603 14.863 8.00003C14.863 10.314 13.869 12.396 12.293 13.858L12.944 14.621C13.8641 13.781 14.5991 12.7583 15.102 11.6184C15.6048 10.4784 15.8646 9.24619 15.8647 8.00025C15.8648 6.75431 15.6052 5.52202 15.1025 4.382C14.5998 3.24197 13.865 2.21924 12.945 1.37903V1.37903ZM10.673 4.03903L10.022 4.80203C10.4467 5.21945 10.784 5.71729 11.0143 6.26648C11.2445 6.81568 11.363 7.40524 11.3629 8.00074C11.3628 8.59624 11.2441 9.18576 11.0137 9.73488C10.7833 10.284 10.4458 10.7817 10.021 11.199L10.672 11.962C11.712 10.962 12.363 9.55803 12.363 8.00103C12.363 6.44403 11.713 5.03903 10.673 4.03903V4.03903ZM0 5.00003V11H2.804L8 14V2.00003L2.804 5.00003H0ZM7 3.73203V12.268L3.072 10H1V6.00003H3.072L7 3.73203Z" fill="white"/>
</svg>

<?xml version="1.0" encoding="utf-8"?>
<!-- Generator: Adobe Illustrator 25.0.0, SVG Export Plug-In . SVG Version: 6.00 Build 0)  -->
<svg version="1.1" id="Camada_1" xmlns="http://www.w3.org/2000/svg" xmlns:xlink="http://www.w3.org/1999/xlink" x="0px" y="0px"
	 viewBox="0 0 16 16" style="enable-background:new 0 0 16 16;" xml:space="preserve">
<style type="text/css">
	.st0{fill:#FFFFFF;}
</style>
<path class="st0" d="M12.9,1.4l-0.7,0.8c1.6,1.5,2.6,3.5,2.6,5.9c0,2.3-1,4.4-2.6,5.9l0.7,0.8c0.9-0.8,1.7-1.9,2.2-3
	c0.5-1.1,0.8-2.4,0.8-3.6s-0.3-2.5-0.8-3.6C14.6,3.2,13.9,2.2,12.9,1.4L12.9,1.4z M10.7,4L10,4.8c0.4,0.4,0.8,0.9,1,1.5
	c0.2,0.5,0.3,1.1,0.3,1.7S11.2,9.2,11,9.7c-0.2,0.5-0.6,1-1,1.5l0.7,0.8c1-1,1.7-2.4,1.7-4S11.7,5,10.7,4L10.7,4z M0,5v6h2.8L8,14V2
	L2.8,5H0z M7,3.7v8.5L3.1,10H1V6h2.1L7,3.7z"/>
</svg>
